packages/calcite-ui-icons/icons/show-link-chart-nonspatial-data-32.svg

<?xml version="1.0" encoding="UTF-8"?><svg id="icons" xmlns="http://www.w3.org/2000/svg" viewBox="0 0 32 32"><defs><style>.cls-1{fill:none;}</style></defs><path d="M10.41119,22.29584c-.26233-.27246-.4856-.51813-.67725-.73682l-1.14764,1.14764c-.45685-.34222-.99628-.57056-1.5863-.65613v-12.10107c1.52692-.22137,2.72809-1.42255,2.94946-2.94946h12.10107c.08557.59003.3139,1.12946.65613,1.5863l-3.01666,3.01666c.2428-.02325.48309-.05463.7309-.06h.1875c.1745.00378.34235.02887.51422.04144l2.29108-2.29108c.58435.43774,1.30176.70667,2.0863.70667,1.92969,0,3.49-1.57031,3.49-3.5s-1.56031-3.5-3.49-3.5c-1.75848,0-3.20422,1.30835-3.44946,3h-12.10107c-.24524-1.69165-1.69098-3-3.44946-3-1.92969,0-3.5,1.57031-3.5,3.5,0,1.75848,1.30835,3.20422,3,3.44946v12.10107c-1.69165.24524-3,1.69098-3,3.44946,0,1.92969,1.57031,3.5,3.5,3.5s3.49-1.57031,3.49-3.5c0-.78455-.25892-1.50195-.69667-2.0863l1.11786-1.11786ZM25.5,4c1.37891,0,2.5,1.12109,2.5,2.5s-1.12109,2.5-2.5,2.5-2.5-1.12109-2.5-2.5,1.12109-2.5,2.5-2.5ZM23.94983,19.47968c-.00018.0127-.00037.02533-.00067.03796.00018.01263.00024.02527.00024.03796,0,1.86206-1.5451,3.37854-3.45074,3.39441-1.90295-.01587-3.44806-1.53235-3.44806-3.39441,0-.0127.00006-.02533.00024-.03796-.00031-.01263-.00049-.02527-.00067-.03796-.02008-1.86194,1.50854-3.39423,3.41394-3.42963.01196-.00012.05981-.00012.07178,0,1.9054.0354,3.43402,1.56769,3.41394,3.42963ZM31,19.5l-.22363.29883c-.18744.25201-4.57123,6.08405-10.23462,6.14679-.00366,0-.00732,0-.01105-.00006-.00366.00006-.00739.00006-.01105.00006-5.66339-.06274-10.10858-5.89478-10.29602-6.14679l-.22363-.29883.22046-.30121c.18475-.25397,4.57043-6.03314,10.23285-6.15546.02582-.00024.12897-.00024.15479,0,5.66241.12231,9.98669,5.90149,10.17145,6.15546l.22046.30121ZM29.90173,19.4942c.00159-.00189.00323-.00385.00482-.00574-.97894-1.21191-4.76038-5.44244-9.31183-5.54468-.02136-.00012-.04272-.00018-.06403-.00018s-.04266.00006-.06403.00018c-4.55145.10223-8.39429,4.33276-9.37323,5.54468.00159.00189.00323.00385.00482.00574-.00159.00195-.00317.00385-.00476.0058.99164,1.20154,4.87775,5.49072,9.43005,5.54504h.01428c4.55231-.05432,8.37701-4.34351,9.36865-5.54504-.00159-.00195-.00317-.00385-.00476-.0058Z"/><rect class="cls-1" width="32" height="32"/></svg>

<svg xmlns="http://www.w3.org/2000/svg" viewBox="0 0 32 32"><path d="M10.411 22.296a21.244 21.244 0 0 1-.677-.737l-1.148 1.148A3.464 3.464 0 0 0 7 22.05V9.949A3.487 3.487 0 0 0 9.95 7h12.1c.086.59.314 1.13.657 1.586l-3.017 3.017c.243-.023.483-.055.73-.06h.188c.175.004.343.029.515.041l2.29-2.29A3.467 3.467 0 0 0 25.5 10c1.93 0 3.49-1.57 3.49-3.5S27.43 3 25.5 3c-1.758 0-3.204 1.308-3.45 3H9.95C9.703 4.308 8.257 3 6.5 3 4.57 3 3 4.57 3 6.5c0 1.758 1.308 3.204 3 3.45v12.1c-1.692.246-3 1.691-3 3.45C3 27.43 4.57 29 6.5 29a3.496 3.496 0 0 0 2.793-5.586l1.118-1.118zM25.5 4C26.879 4 28 5.121 28 6.5S26.879 9 25.5 9 23 7.879 23 6.5 24.121 4 25.5 4zm-1.55 15.48a3.964 3.964 0 0 1 0 .076c0 1.862-1.546 3.378-3.451 3.394-1.903-.016-3.448-1.532-3.448-3.394a2.662 2.662 0 0 1 0-.076c-.02-1.862 1.508-3.395 3.413-3.43h.072c1.905.035 3.434 1.568 3.414 3.43zm7.05.02l-.224.299c-.187.252-4.57 6.084-10.234 6.147h-.022c-5.664-.063-10.109-5.895-10.296-6.147L10 19.5l.22-.301c.185-.254 4.57-6.033 10.233-6.156h.155c5.663.123 9.987 5.902 10.172 6.156l.22.301zm-1.098-.006l.005-.006c-.98-1.211-4.76-5.442-9.312-5.544a11.402 11.402 0 0 0-.128 0c-4.552.102-8.395 4.333-9.374 5.544l.005.006-.005.006c.992 1.202 4.878 5.49 9.43 5.545h.015c4.552-.054 8.377-4.343 9.368-5.545l-.004-.006z"/><path fill="none" d="M0 0h32v32H0z"/></svg>
